Obsidian/places/16/folder-add.svg

<svg viewBox="0 0 16 16" xmlns="http://www.w3.org/2000/svg"><path d="m2 2v12h7v-1h-6v-5h2l1.9980469-2h6.0019531v3h1v-5h-4.9921875l-2-2-.0078125.0078125v-.0078125zm9 7v2h-2v1h2v2h1v-2h2v-1h-2v-2z" fill="#f2f2f2"/></svg>

<svg xmlns="http://www.w3.org/2000/svg" viewBox="0 0 16 16">
  <defs id="defs3051">
    <style type="text/css" id="current-color-scheme">
      .ColorScheme-Text {
        color:#f2f2f2;
      }
      </style>
  </defs>
    <path 
        style="fill:currentColor;fill-opacity:1;stroke:none" 
        d="M 2 2 L 2 14 L 9 14 L 9 13 L 3 13 L 3 8 L 5 8 L 6.9980469 6 L 13 6 L 13 9 L 14 9 L 14 4 L 9.0078125 4 L 7.0078125 2 L 7 2.0078125 L 7 2 L 2 2 z M 11 9 L 11 11 L 9 11 L 9 12 L 11 12 L 11 14 L 12 14 L 12 12 L 14 12 L 14 11 L 12 11 L 12 9 L 11 9 z " 
        id="rect4182" 
        class="ColorScheme-Text"/>
</svg>
